X:30
T:Fair Wind
R:reel
M:4/4
K:D
|:"D"A,DD CD2DE|"Bm7"FEDE FEE2|"D"A,DDC D2DE|
1 "Bm7"FEDB, "A"B,A,A,B,:|2 "D"EFDB, "A"B,A,A,E
|: "D"FAAF "Bm"D2DE|"A"F2FF GEEG|"D"FAAF "Bm"D2DE| \
|1 "D"FEDB,B,A,A,E:|2 "D"FEDB,B,A,A,B,
|: "Bm7"DB,B,2 "G"G2GE|"D"F2AF EGFE|"Bm7"DB,B,2 "G"G2GE|
1 "D"FEDB,B,A,A,B,:|2 "D"FEDB,B,A,A,B,| \
